static/img/kroki/93f7e4526cf1ae3c9711a0416c0e3a1e.svg

<?xml version="1.0" encoding="us-ascii" standalone="no"?><svg xmlns="http://www.w3.org/2000/svg" xmlns:xlink="http://www.w3.org/1999/xlink" contentStyleType="text/css" height="252px" preserveAspectRatio="none" style="width:1148px;height:252px;" version="1.1" viewBox="0 0 1148 252" width="1148px" zoomAndPan="magnify"><defs/><g><!--class aws_bedrock_agent--><g id="elem_aws_bedrock_agent"><rect codeLine="23" fill="#3D176E" height="39.7891" id="aws_bedrock_agent" rx="2.5" ry="2.5" style="stroke:#000D19;stroke-width:0.5;" width="206" x="107" y="106.79"/><ellipse cx="122" cy="126.6845" fill="#ADD1B2" rx="11" ry="11" style="stroke:#181818;stroke-width:1.0;"/><path d="M124.9688,132.3252 Q124.3906,132.622 123.75,132.7627 Q123.1094,132.9189 122.4063,132.9189 Q119.9063,132.9189 118.5781,131.2783 Q117.2656,129.622 117.2656,126.497 Q117.2656,123.372 118.5781,121.7158 Q119.9063,120.0595 122.4063,120.0595 Q123.1094,120.0595 123.75,120.2158 Q124.4063,120.372 124.9688,120.6689 L124.9688,123.3877 Q124.3438,122.8095 123.75,122.5439 Q123.1563,122.2627 122.5313,122.2627 Q121.1875,122.2627 120.5,123.3408 Q119.8125,124.4033 119.8125,126.497 Q119.8125,128.5908 120.5,129.6689 Q121.1875,130.7314 122.5313,130.7314 Q123.1563,130.7314 123.75,130.4658 Q124.3438,130.1845 124.9688,129.6064 L124.9688,132.3252 Z " fill="#000000"/><text fill="#D9B8FF" font-family="Helvetica" font-size="17" lengthAdjust="spacing" textLength="164" x="141" y="132.5698">aws_bedrock_agent</text></g><!--class aws_bedrock_agent_version--><g id="elem_aws_bedrock_agent_version"><rect codeLine="26" fill="#3D176E" height="39.7891" id="aws_bedrock_agent_version" rx="2.5" ry="2.5" style="stroke:#000D19;stroke-width:0.5;" width="276" x="7" y="206.58"/><ellipse cx="22" cy="226.4745" fill="#ADD1B2" rx="11" ry="11" style="stroke:#181818;stroke-width:1.0;"/><path d="M24.9688,232.1152 Q24.3906,232.412 23.75,232.5527 Q23.1094,232.7089 22.4063,232.7089 Q19.9063,232.7089 18.5781,231.0683 Q17.2656,229.412 17.2656,226.287 Q17.2656,223.162 18.5781,221.5058 Q19.9063,219.8495 22.4063,219.8495 Q23.1094,219.8495 23.75,220.0058 Q24.4063,220.162 24.9688,220.4589 L24.9688,223.1777 Q24.3438,222.5995 23.75,222.3339 Q23.1563,222.0527 22.5313,222.0527 Q21.1875,222.0527 20.5,223.1308 Q19.8125,224.1933 19.8125,226.287 Q19.8125,228.3808 20.5,229.4589 Q21.1875,230.5214 22.5313,230.5214 Q23.1563,230.5214 23.75,230.2558 Q24.3438,229.9745 24.9688,229.3964 L24.9688,232.1152 Z " fill="#000000"/><text fill="#D9B8FF" font-family="Helvetica" font-size="17" lengthAdjust="spacing" textLength="234" x="41" y="232.3598">aws_bedrock_agent_version</text></g><!--class aws_bedrock_custom_model--><g id="elem_aws_bedrock_custom_model"><rect codeLine="29" fill="#3D176E" height="39.7891" id="aws_bedrock_custom_model" rx="2.5" ry="2.5" style="stroke:#000D19;stroke-width:0.5;" width="280" x="539" y="106.79"/><ellipse cx="554" cy="126.6845" fill="#ADD1B2" rx="11" ry="11" style="stroke:#181818;stroke-width:1.0;"/><path d="M556.9688,132.3252 Q556.3906,132.622 555.75,132.7627 Q555.1094,132.9189 554.4063,132.9189 Q551.9063,132.9189 550.5781,131.2783 Q549.2656,129.622 549.2656,126.497 Q549.2656,123.372 550.5781,121.7158 Q551.9063,120.0595 554.4063,120.0595 Q555.1094,120.0595 555.75,120.2158 Q556.4063,120.372 556.9688,120.6689 L556.9688,123.3877 Q556.3438,122.8095 555.75,122.5439 Q555.1563,122.2627 554.5313,122.2627 Q553.1875,122.2627 552.5,123.3408 Q551.8125,124.4033 551.8125,126.497 Q551.8125,128.5908 552.5,129.6689 Q553.1875,130.7314 554.5313,130.7314 Q555.1563,130.7314 555.75,130.4658 Q556.3438,130.1845 556.9688,129.6064 L556.9688,132.3252 Z " fill="#000000"/><text fill="#D9B8FF" font-family="Helvetica" font-size="17" lengthAdjust="spacing" textLength="238" x="573" y="132.5698">aws_bedrock_custom_model</text></g><!--class aws_bedrock_foundation_model--><g id="elem_aws_bedrock_foundation_model"><rect codeLine="32" fill="#3D176E" height="39.7891" id="aws_bedrock_foundation_model" rx="2.5" ry="2.5" style="stroke:#000D19;stroke-width:0.5;" width="310" x="331" y="7"/><ellipse cx="346" cy="26.8945" fill="#ADD1B2" rx="11" ry="11" style="stroke:#181818;stroke-width:1.0;"/><path d="M348.9688,32.5352 Q348.3906,32.832 347.75,32.9727 Q347.1094,33.1289 346.4063,33.1289 Q343.9063,33.1289 342.5781,31.4883 Q341.2656,29.832 341.2656,26.707 Q341.2656,23.582 342.5781,21.9258 Q343.9063,20.2695 346.4063,20.2695 Q347.1094,20.2695 347.75,20.4258 Q348.4063,20.582 348.9688,20.8789 L348.9688,23.5977 Q348.3438,23.0195 347.75,22.7539 Q347.1563,22.4727 346.5313,22.4727 Q345.1875,22.4727 344.5,23.5508 Q343.8125,24.6133 343.8125,26.707 Q343.8125,28.8008 344.5,29.8789 Q345.1875,30.9414 346.5313,30.9414 Q347.1563,30.9414 347.75,30.6758 Q348.3438,30.3945 348.9688,29.8164 L348.9688,32.5352 Z " fill="#000000"/><text fill="#D9B8FF" font-family="Helvetica" font-size="17" lengthAdjust="spacing" textLength="268" x="365" y="32.7798">aws_bedrock_foundation_model</text></g><!--class aws_bedrock_model_customization_job--><g id="elem_aws_bedrock_model_customization_job"><rect codeLine="35" fill="#3D176E" height="39.7891" id="aws_bedrock_model_customization_job" rx="2.5" ry="2.5" style="stroke:#000D19;stroke-width:0.5;" width="370" x="318" y="206.58"/><ellipse cx="333" cy="226.4745" fill="#ADD1B2" rx="11" ry="11" style="stroke:#181818;stroke-width:1.0;"/><path d="M335.9688,232.1152 Q335.3906,232.412 334.75,232.5527 Q334.1094,232.7089 333.4063,232.7089 Q330.9063,232.7089 329.5781,231.0683 Q328.2656,229.412 328.2656,226.287 Q328.2656,223.162 329.5781,221.5058 Q330.9063,219.8495 333.4063,219.8495 Q334.1094,219.8495 334.75,220.0058 Q335.4063,220.162 335.9688,220.4589 L335.9688,223.1777 Q335.3438,222.5995 334.75,222.3339 Q334.1563,222.0527 333.5313,222.0527 Q332.1875,222.0527 331.5,223.1308 Q330.8125,224.1933 330.8125,226.287 Q330.8125,228.3808 331.5,229.4589 Q332.1875,230.5214 333.5313,230.5214 Q334.1563,230.5214 334.75,230.2558 Q335.3438,229.9745 335.9688,229.3964 L335.9688,232.1152 Z " fill="#000000"/><text fill="#D9B8FF" font-family="Helvetica" font-size="17" lengthAdjust="spacing" textLength="328" x="352" y="232.3598">aws_bedrock_model_customization_job</text></g><!--class aws_bedrock_provisioned_model_throughput--><g id="elem_aws_bedrock_provisioned_model_throughput"><rect codeLine="38" fill="#3D176E" height="39.7891" id="aws_bedrock_provisioned_model_throughput" rx="2.5" ry="2.5" style="stroke:#000D19;stroke-width:0.5;" width="419" x="722.5" y="206.58"/><ellipse cx="737.5" cy="226.4745" fill="#ADD1B2" rx="11" ry="11" style="stroke:#181818;stroke-width:1.0;"/><path d="M740.4688,232.1152 Q739.8906,232.412 739.25,232.5527 Q738.6094,232.7089 737.9063,232.7089 Q735.4063,232.7089 734.0781,231.0683 Q732.7656,229.412 732.7656,226.287 Q732.7656,223.162 734.0781,221.5058 Q735.4063,219.8495 737.9063,219.8495 Q738.6094,219.8495 739.25,220.0058 Q739.9063,220.162 740.4688,220.4589 L740.4688,223.1777 Q739.8438,222.5995 739.25,222.3339 Q738.6563,222.0527 738.0313,222.0527 Q736.6875,222.0527 736,223.1308 Q735.3125,224.1933 735.3125,226.287 Q735.3125,228.3808 736,229.4589 Q736.6875,230.5214 738.0313,230.5214 Q738.6563,230.5214 739.25,230.2558 Q739.8438,229.9745 740.4688,229.3964 L740.4688,232.1152 Z " fill="#000000"/><text fill="#D9B8FF" font-family="Helvetica" font-size="17" lengthAdjust="spacing" textLength="377" x="756.5" y="232.3598">aws_bedrock_provisioned_model_throughput</text></g><!--link aws_bedrock_agent to aws_bedrock_agent_version--><g id="link_aws_bedrock_agent_aws_bedrock_agent_version"><path codeLine="41" d="M197.16,147.01 C185.76,164.15 172.5188,184.0614 161.1388,201.2014 " fill="none" id="aws_bedrock_agent-to-aws_bedrock_agent_version" style="stroke:#1A83AF;stroke-width:2.0;"/><polygon fill="#1A83AF" points="157.82,206.2,166.1305,200.9147,160.5856,202.0345,159.4658,196.4896,157.82,206.2" style="stroke:#1A83AF;stroke-width:2.0;"/></g><!--link aws_bedrock_custom_model to aws_bedrock_model_customization_job--><g id="link_aws_bedrock_custom_model_aws_bedrock_model_customization_job"><path codeLine="42" d="M644.23,147.01 C613.37,164.15 573.7741,186.1446 542.9441,203.2846 " fill="none" id="aws_bedrock_custom_model-to-aws_bedrock_model_customization_job" style="stroke:#1A83AF;stroke-width:2.0;"/><polygon fill="#1A83AF" points="537.7,206.2,547.5097,205.3229,542.0701,203.7705,543.6225,198.3308,537.7,206.2" style="stroke:#1A83AF;stroke-width:2.0;"/></g><!--link aws_bedrock_custom_model to aws_bedrock_provisioned_model_throughput--><g id="link_aws_bedrock_custom_model_aws_bedrock_provisioned_model_throughput"><path codeLine="43" d="M728.98,147.01 C773.34,164.15 832.2039,186.8958 876.5239,204.0358 " fill="none" id="aws_bedrock_custom_model-to-aws_bedrock_provisioned_model_throughput" style="stroke:#1A83AF;stroke-width:2.0;"/><polygon fill="#1A83AF" points="882.12,206.2,875.1687,199.223,877.4566,204.3965,872.2831,206.6844,882.12,206.2" style="stroke:#1A83AF;stroke-width:2.0;"/></g><!--link aws_bedrock_foundation_model to aws_bedrock_agent--><g id="link_aws_bedrock_foundation_model_aws_bedrock_agent"><path codeLine="44" d="M431.47,47.22 C383.08,64.36 318.4252,87.2653 270.0752,104.4053 " fill="none" id="aws_bedrock_foundation_model-to-aws_bedrock_agent" style="stroke:#1A83AF;stroke-width:2.0;"/><polygon fill="#1A83AF" points="264.42,106.41,274.2393,107.173,269.1326,104.7394,271.5663,99.6328,264.42,106.41" style="stroke:#1A83AF;stroke-width:2.0;"/></g><!--link aws_bedrock_foundation_model to aws_bedrock_agent_version--><g id="link_aws_bedrock_foundation_model_aws_bedrock_agent_version"><path codeLine="45" d="M464.49,47.03 C435.48,72.17 381.48,116.64 330,146.58 C288.35,170.8 243.4531,189.7204 205.7431,203.9604 " fill="none" id="aws_bedrock_foundation_model-to-aws_bedrock_agent_version" style="stroke:#1A83AF;stroke-width:2.0;"/><polygon fill="#1A83AF" points="200.13,206.08,209.9628,206.6427,204.8076,204.3136,207.1366,199.1585,200.13,206.08" style="stroke:#1A83AF;stroke-width:2.0;"/></g><!--link aws_bedrock_foundation_model to aws_bedrock_custom_model--><g id="link_aws_bedrock_foundation_model_aws_bedrock_custom_model"><path codeLine="46" d="M524.13,47.22 C557.97,64.36 601.7884,86.557 635.5984,103.697 " fill="none" id="aws_bedrock_foundation_model-to-aws_bedrock_custom_model" style="stroke:#1A83AF;stroke-width:2.0;"/><polygon fill="#1A83AF" points="640.95,106.41,634.7313,98.7728,636.4903,104.1492,631.1139,105.9082,640.95,106.41" style="stroke:#1A83AF;stroke-width:2.0;"/></g><!--link aws_bedrock_foundation_model to aws_bedrock_model_customization_job--><g id="link_aws_bedrock_foundation_model_aws_bedrock_model_customization_job"><path codeLine="47" d="M487.66,47.2 C490.91,84.97 497.5664,162.282 500.8164,200.112 " fill="none" id="aws_bedrock_foundation_model-to-aws_bedrock_model_customization_job" style="stroke:#1A83AF;stroke-width:2.0;"/><polygon fill="#1A83AF" points="501.33,206.09,504.545,196.7806,500.902,201.1084,496.5743,197.4654,501.33,206.09" style="stroke:#1A83AF;stroke-width:2.0;"/></g><!--link aws_bedrock_foundation_model to aws_bedrock_provisioned_model_throughput--><g id="link_aws_bedrock_foundation_model_aws_bedrock_provisioned_model_throughput"><path codeLine="48" d="M641.42,40.09 C705.73,50.7 778.73,70.39 837,106.79 C877.07,131.82 904.6497,174.6275 919.3597,201.2675 " fill="none" id="aws_bedrock_foundation_model-to-aws_bedrock_provisioned_model_throughput" style="stroke:#1A83AF;stroke-width:2.0;"/><polygon fill="#1A83AF" points="922.26,206.52,921.4112,196.7078,919.8431,202.143,914.4079,200.5748,922.26,206.52" style="stroke:#1A83AF;stroke-width:2.0;"/></g><!--SRC=[fP9HQy8m58NV-oi2FWjsigal0oV8zY9ZxcsCaZOtRTOsjoIfecF_VQrs8sjD5VUQ-zrpppaa4Gm8v8NPaHpo49JsT2faGHNDoLmft2umGqK6d5C-dhI7IvJcBB2YEP17o3PWH4JRn6iYebI2rkJ66ZtGA8qLbf8TvOsYKbSZaCQY5XdLUcwC4c5fm3B3Pk6KypRP5XsCcJ-vWmw6Ye5gaD5enFnP6pbxgZVtBx4MUo2-NTeA3NHiTauSg5wNDM6Px0JzcJizFbF6X8p9hVNsSlIa9AW_x-k4CjpMDAUPjize0mhGx0fOT5B1RChuv2Jyv8AzgAwEqAqEGc0AepIWSVKdoAVdVRc6mQRwrWAb2ufARJ0FScIGkHXUUw6cKkdd3iD6KUoF2nyOkl12uKRKte0rgoQfOiT9KJQPkb67RmD_FXtFb-_3UtTOpvdGkU_mVeLINooljzR-SF_PFLdCvHfsy2ibBkdtShNUZhy1]--></g></svg>

<svg xmlns="http://www.w3.org/2000/svg" width="1148" height="252" viewBox="0 0 1148 252"><rect width="206" height="39.789" x="107" y="106.79" fill="#3D176E" rx="2.5" ry="2.5" style="stroke:#000d19;stroke-width:.5"/><circle cx="122" cy="126.684" r="11" fill="#ADD1B2" style="stroke:#181818;stroke-width:1"/><path d="M124.969 132.325q-.578.297-1.219.438-.64.156-1.344.156-2.5 0-3.828-1.64-1.312-1.657-1.312-4.782t1.312-4.781q1.328-1.656 3.828-1.656.703 0 1.344.156.656.156 1.219.453v2.719q-.625-.579-1.219-.844-.594-.281-1.219-.281-1.344 0-2.031 1.078-.687 1.062-.687 3.156t.687 3.172q.688 1.062 2.031 1.062.625 0 1.219-.265.594-.281 1.219-.86z"/><text x="141" y="132.57" fill="#D9B8FF" font-family="Helvetica" font-size="17" textLength="164">aws_bedrock_agent</text><rect width="276" height="39.789" x="7" y="206.58" fill="#3D176E" rx="2.5" ry="2.5" style="stroke:#000d19;stroke-width:.5"/><circle cx="22" cy="226.475" r="11" fill="#ADD1B2" style="stroke:#181818;stroke-width:1"/><path d="M24.969 232.115q-.578.297-1.219.438-.64.156-1.344.156-2.5 0-3.828-1.64-1.312-1.657-1.312-4.782t1.312-4.781q1.328-1.656 3.828-1.656.703 0 1.344.156.656.156 1.219.453v2.719q-.625-.578-1.219-.844-.594-.281-1.219-.281-1.343 0-2.031 1.078-.687 1.062-.687 3.156t.687 3.172q.688 1.062 2.031 1.062.625 0 1.219-.265.594-.281 1.219-.86z"/><text x="41" y="232.36" fill="#D9B8FF" font-family="Helvetica" font-size="17" textLength="234">aws_bedrock_agent_version</text><rect width="280" height="39.789" x="539" y="106.79" fill="#3D176E" rx="2.5" ry="2.5" style="stroke:#000d19;stroke-width:.5"/><circle cx="554" cy="126.684" r="11" fill="#ADD1B2" style="stroke:#181818;stroke-width:1"/><path d="M556.969 132.325q-.578.297-1.219.438-.64.156-1.344.156-2.5 0-3.828-1.64-1.312-1.657-1.312-4.782t1.312-4.781q1.328-1.656 3.828-1.656.703 0 1.344.156.656.156 1.219.453v2.719q-.625-.579-1.219-.844-.594-.281-1.219-.281-1.343 0-2.031 1.078-.687 1.062-.687 3.156t.687 3.172q.688 1.062 2.031 1.062.625 0 1.219-.265.594-.281 1.219-.86z"/><text x="573" y="132.57" fill="#D9B8FF" font-family="Helvetica" font-size="17" textLength="238">aws_bedrock_custom_model</text><rect width="310" height="39.789" x="331" y="7" fill="#3D176E" rx="2.5" ry="2.5" style="stroke:#000d19;stroke-width:.5"/><circle cx="346" cy="26.895" r="11" fill="#ADD1B2" style="stroke:#181818;stroke-width:1"/><path d="M348.969 32.535q-.578.297-1.219.438-.64.156-1.344.156-2.5 0-3.828-1.64-1.312-1.657-1.312-4.782t1.312-4.781q1.328-1.656 3.828-1.656.703 0 1.344.156.656.156 1.219.453v2.719q-.625-.578-1.219-.844-.594-.281-1.219-.281-1.344 0-2.031 1.078-.687 1.062-.687 3.156t.687 3.172q.688 1.062 2.031 1.062.625 0 1.219-.265.594-.281 1.219-.86z"/><text x="365" y="32.78" fill="#D9B8FF" font-family="Helvetica" font-size="17" textLength="268">aws_bedrock_foundation_model</text><rect width="370" height="39.789" x="318" y="206.58" fill="#3D176E" rx="2.5" ry="2.5" style="stroke:#000d19;stroke-width:.5"/><circle cx="333" cy="226.475" r="11" fill="#ADD1B2" style="stroke:#181818;stroke-width:1"/><path d="M335.969 232.115q-.578.297-1.219.438-.64.156-1.344.156-2.5 0-3.828-1.64-1.312-1.657-1.312-4.782t1.312-4.781q1.328-1.656 3.828-1.656.703 0 1.344.156.656.156 1.219.453v2.719q-.625-.578-1.219-.844-.594-.281-1.219-.281-1.344 0-2.031 1.078-.687 1.062-.687 3.156t.687 3.172q.688 1.062 2.031 1.062.625 0 1.219-.265.594-.281 1.219-.86z"/><text x="352" y="232.36" fill="#D9B8FF" font-family="Helvetica" font-size="17" textLength="328">aws_bedrock_model_customization_job</text><rect width="419" height="39.789" x="722.5" y="206.58" fill="#3D176E" rx="2.5" ry="2.5" style="stroke:#000d19;stroke-width:.5"/><circle cx="737.5" cy="226.475" r="11" fill="#ADD1B2" style="stroke:#181818;stroke-width:1"/><path d="M740.469 232.115q-.578.297-1.219.438-.64.156-1.344.156-2.5 0-3.828-1.64-1.312-1.657-1.312-4.782t1.312-4.781q1.328-1.656 3.828-1.656.703 0 1.344.156.656.156 1.219.453v2.719q-.625-.578-1.219-.844-.594-.281-1.219-.281-1.343 0-2.031 1.078-.687 1.062-.687 3.156t.687 3.172q.688 1.062 2.031 1.062.625 0 1.219-.265.594-.281 1.219-.86z"/><text x="756.5" y="232.36" fill="#D9B8FF" font-family="Helvetica" font-size="17" textLength="377">aws_bedrock_provisioned_model_throughput</text><path fill="none" d="M197.16 147.01a84739 84739 0 0 0-36.021 54.191" style="stroke:#1a83af;stroke-width:2"/><path fill="#1A83AF" d="m157.82 206.2 8.31-5.285-5.544 1.12-1.12-5.545z" style="stroke:#1a83af;stroke-width:2"/><path fill="none" d="M644.23 147.01c-30.86 17.14-70.456 39.135-101.286 56.275" style="stroke:#1a83af;stroke-width:2"/><path fill="#1A83AF" d="m537.7 206.2 9.81-.877-5.44-1.553 1.552-5.44z" style="stroke:#1a83af;stroke-width:2"/><path fill="none" d="M728.98 147.01c44.36 17.14 103.224 39.886 147.544 57.026" style="stroke:#1a83af;stroke-width:2"/><path fill="#1A83AF" d="m882.12 206.2-6.951-6.977 2.288 5.173-5.174 2.288z" style="stroke:#1a83af;stroke-width:2"/><path fill="none" d="M431.47 47.22c-48.39 17.14-113.045 40.045-161.395 57.185" style="stroke:#1a83af;stroke-width:2"/><path fill="#1A83AF" d="m264.42 106.41 9.82.763-5.107-2.434 2.433-5.106z" style="stroke:#1a83af;stroke-width:2"/><path fill="none" d="M464.49 47.03c-29.01 25.14-83.01 69.61-134.49 99.55-41.65 24.22-86.547 43.14-124.257 57.38" style="stroke:#1a83af;stroke-width:2"/><path fill="#1A83AF" d="m200.13 206.08 9.833.563-5.155-2.33 2.329-5.154z" style="stroke:#1a83af;stroke-width:2"/><path fill="none" d="M524.13 47.22c33.84 17.14 77.658 39.337 111.468 56.477" style="stroke:#1a83af;stroke-width:2"/><path fill="#1A83AF" d="m640.95 106.41-6.219-7.637 1.76 5.376-5.377 1.76z" style="stroke:#1a83af;stroke-width:2"/><path fill="none" d="M487.66 47.2c3.25 37.77 9.906 115.082 13.156 152.912" style="stroke:#1a83af;stroke-width:2"/><path fill="#1A83AF" d="m501.33 206.09 3.215-9.31-3.643 4.328-4.328-3.643z" style="stroke:#1a83af;stroke-width:2"/><path fill="none" d="M641.42 40.09c64.31 10.61 137.31 30.3 195.58 66.7 40.07 25.03 67.65 67.837 82.36 94.478" style="stroke:#1a83af;stroke-width:2"/><path fill="#1A83AF" d="m922.26 206.52-.849-9.812-1.568 5.435-5.435-1.568z" style="stroke:#1a83af;stroke-width:2"/></svg>
